X: 8331
T: Cotillion Des Marionettes
R: polka
M: 2/4
K: Gmajor
|:B/A/B/c/|Bd dc/B/|AG B/A/B/c/|Bd dc/B/|A2:|
|:B/A/B/c/|Bd GF/E/|D2 GF/E/|DG A/B/c/A/|BG B/A/B/c/|
Bd GF/E/|D2 dB|e/d/c/B/ AG|G2:|

